Papirus/64x64/apps/com.github.cassidyjames.dippi.svg

<?xml version="1.0" encoding="UTF-8" standalone="no"?>
<svg
   id="_图层_1"
   version="1.1"
   viewBox="0 0 64 64" width="64" height="64"
   sodipodi:docname="com.github.cassidyjames.dippi.svg"
   xml:space="preserve"
   inkscape:version="1.4 (e7c3feb100, 2024-10-09)"
   xmlns:inkscape="http://www.inkscape.org/namespaces/inkscape"
   xmlns:sodipodi="http://sodipodi.sourceforge.net/DTD/sodipodi-0.dtd"
   xmlns="http://www.w3.org/2000/svg"
   xmlns:svg="http://www.w3.org/2000/svg"><sodipodi:namedview
     id="namedview26"
     pagecolor="#505050"
     bordercolor="#eeeeee"
     borderopacity="1"
     inkscape:showpageshadow="0"
     inkscape:pageopacity="0"
     inkscape:pagecheckerboard="0"
     inkscape:deskcolor="#505050"
     inkscape:zoom="8.453125"
     inkscape:cx="31.94085"
     inkscape:cy="33.833641"
     inkscape:window-width="1920"
     inkscape:window-height="939"
     inkscape:window-x="0"
     inkscape:window-y="34"
     inkscape:window-maximized="1"
     inkscape:current-layer="_图层_1" /><!-- Generator: Adobe Illustrator 29.0.1, SVG Export Plug-In . SVG Version: 2.1.0 Build 192)  --><defs
     id="defs6"><style
       id="style1">
      .st0 {
        fill-opacity: .5;
      }

      .st0, .st1, .st2, .st3, .st4, .st5, .st6, .st7 {
        fill: #fff;
      }

      .st8 {
        fill: #133c9a;
      }

      .st2, .st9 {
        display: none;
      }

      .st3 {
        fill-opacity: .2;
      }

      .st4 {
        fill-opacity: .9;
      }

      .st10 {
        fill: #3370ff;
      }

      .st11 {
        fill: url(#_未命名的渐变_3);
      }

      .st12 {
        fill: url(#_未命名的渐变);
      }

      .st5 {
        fill-opacity: .3;
      }

      .st6 {
        fill-opacity: 0;
      }

      .st7 {
        fill-opacity: .7;
      }

      .st13 {
        fill: #00d6b9;
      }

      .st14 {
        fill: url(#_未命名的渐变_2);
      }
    </style><radialGradient
       id="_未命名的渐变"
       data-name="未命名的渐变"
       cx="123.9"
       cy="-40.2"
       fx="123.9"
       fy="-40.2"
       r="59.4"
       gradientTransform="translate(-26.8 25.5) scale(.6 -.7)"
       gradientUnits="userSpaceOnUse"><stop
         offset="0"
         stop-color="#db202e"
         id="stop1" /><stop
         offset="1"
         stop-color="#e01b24"
         id="stop2" /></radialGradient><radialGradient
       id="_未命名的渐变_2"
       data-name="未命名的渐变 2"
       cx="67.6"
       cy="26.8"
       fx="67.6"
       fy="26.8"
       r="105.2"
       gradientTransform="translate(-26.6 25.3) scale(.6 -.7)"
       gradientUnits="userSpaceOnUse"><stop
         offset="0"
         stop-color="#ffb648"
         id="stop3" /><stop
         offset="1"
         stop-color="#ff7800"
         stop-opacity="0"
         id="stop4" /></radialGradient><radialGradient
       id="_未命名的渐变_3"
       data-name="未命名的渐变 3"
       cx="61.7"
       cy="18.6"
       fx="61.7"
       fy="18.6"
       r="68"
       gradientTransform="translate(-26.8 25.8) scale(.6 -.7)"
       gradientUnits="userSpaceOnUse"><stop
         offset="0"
         stop-color="#c64600"
         id="stop5" /><stop
         offset="1"
         stop-color="#a51d2d"
         id="stop6" /></radialGradient></defs><path
     class="st1"
     d="M47.5,64.1H13.8c-7.6,0-13.8-6.3-13.8-13.8V13.7C0,6.2,6.2,0,13.7,0h36.6c7.5,0,13.7,6.2,13.7,13.7v36.6c0,7.5-6.2,13.7-13.7,13.7h-2.9.1Z"
     id="path6"
     style="fill:#e4e4e4;fill-opacity:1" /><g
     id="g62"
     transform="translate(0,1.5)"><rect
       style="opacity:0.2"
       width="32"
       height="42"
       x="16"
       y="14"
       rx="2.5"
       ry="2.5"
       id="rect1" /><rect
       style="fill:#8e8e8e"
       width="32"
       height="42"
       x="16"
       y="13"
       rx="2.5"
       ry="2.5"
       id="rect2" /><rect
       style="opacity:0.2"
       width="52"
       height="40"
       x="6"
       y="10"
       rx="2.5"
       ry="2.5"
       id="rect3" /><path
       style="fill:#3f3f3f"
       d="m 6,44 v 2.5 C 6,47.885 7.115,49 8.5,49 h 47 C 56.885,49 58,47.885 58,46.5 V 44 Z"
       id="path3" /><path
       style="fill:#e4e4e4"
       d="M 8.5,9 C 7.115,9 6,10.115 6,11.5 V 44 H 58 V 11.5 C 58,10.115 56.885,9 55.5,9 Z"
       id="path4-6" /><path
       style="opacity:0.2;fill:#ffffff"
       d="M 8.5,9 C 7.115,9 6,10.115 6,11.5 v 1 C 6,11.115 7.115,10 8.5,10 h 47 c 1.385,0 2.5,1.115 2.5,2.5 v -1 C 58,10.115 56.885,9 55.5,9 Z"
       id="path5-4" /><path
       style="fill:#cd3840"
       d="M 58,12 14,44 H 48 55.742188 58 v -2 -5 z m -9,16 v 8 H 39 Z"
       id="path6-9" /><rect
       style="opacity:0.2"
       width="44"
       height="1"
       x="14"
       y="44"
       id="rect6" /></g></svg>

<svg xmlns="http://www.w3.org/2000/svg" width="64" height="64" version="1.1">
 <rect style="opacity:0.2" width="32" height="42" x="16" y="14" rx="2.5" ry="2.5"/>
 <rect style="fill:#8e8e8e" width="32" height="42" x="16" y="13" rx="2.5" ry="2.5"/>
 <rect style="opacity:0.2" width="52" height="40" x="6" y="10" rx="2.5" ry="2.5"/>
 <path style="fill:#3f3f3f" d="M 6 44 L 6 46.5 C 6 47.885 7.115 49 8.5 49 L 55.5 49 C 56.885 49 58 47.885 58 46.5 L 58 44 L 6 44 z"/>
 <path style="fill:#e4e4e4" d="M 8.5,9 C 7.115,9 6,10.115 6,11.5 V 44 H 58 V 11.5 C 58,10.115 56.885,9 55.5,9 Z"/>
 <path style="fill:#ffffff;opacity:0.2" d="M 8.5 9 C 7.115 9 6 10.115 6 11.5 L 6 12.5 C 6 11.115 7.115 10 8.5 10 L 55.5 10 C 56.885 10 58 11.115 58 12.5 L 58 11.5 C 58 10.115 56.885 9 55.5 9 L 8.5 9 z"/>
 <path style="fill:#cd3840" d="M 58 12 L 14 44 L 48 44 L 55.742188 44 L 58 44 L 58 42 L 58 37 L 58 12 z M 49 28 L 49 36 L 39 36 L 49 28 z"/>
 <rect style="opacity:0.2" width="44" height="1" x="14" y="44"/>
</svg>
